assets/icons/moduleIcons/archives.svg

<svg width="50" height="50" viewBox="0 0 50 50" fill="none" xmlns="http://www.w3.org/2000/svg">
<path d="M23 13.15V10.21H20.1V13.15H23ZM26 16.15V13.15H23V16.15H26ZM23 19.09V16.14H20.1V19.08L23 19.09ZM26 22.09V19.09H23V22.09H26ZM42.16 13.09C42.6401 13.5919 43.0172 14.1831 43.27 14.83C43.5634 15.4812 43.7199 16.1858 43.73 16.9V43.47C43.7387 43.7615 43.6883 44.0519 43.5817 44.3234C43.4752 44.595 43.3147 44.8421 43.11 45.05C42.6868 45.4634 42.1216 45.6995 41.53 45.71H10.49C10.1949 45.7184 9.90138 45.6639 9.62896 45.5501C9.35654 45.4363 9.11146 45.2658 8.91002 45.05C8.50561 44.6208 8.27103 44.0593 8.25002 43.47V6.52997C8.24863 6.24322 8.30654 5.95928 8.42012 5.69599C8.5337 5.43269 8.70049 5.19572 8.91002 4.99997C9.33917 4.59555 9.90072 4.36097 10.49 4.33997H31.2C31.889 4.36354 32.5674 4.51618 33.2 4.78997C33.8678 5.01776 34.4808 5.38217 35 5.85997L42.16 13.09ZM31.9 7.43997V16.14H40.6C40.5318 15.7659 40.3584 15.419 40.1 15.14L32.86 7.92997C32.5798 7.67525 32.233 7.50533 31.86 7.43997H31.9ZM40.81 42.77V19.08H31.2C30.904 19.0884 30.6096 19.033 30.3369 18.9173C30.0643 18.8017 29.8197 18.6287 29.62 18.41C29.2359 17.9912 29.0158 17.448 29 16.88V7.22997H26V10.23H23V7.22997H11.19V42.77H40.81ZM26.31 26.08L28.8 34.15C28.9188 34.5429 28.986 34.9497 29 35.36C29.0005 35.986 28.8498 36.6029 28.5608 37.1583C28.2718 37.7137 27.853 38.1911 27.34 38.55C26.0848 39.4621 24.5476 39.9013 23 39.79C21.4946 39.8324 20.0142 39.3985 18.77 38.55C18.2595 38.1857 17.8404 37.7081 17.5454 37.1546C17.2505 36.6011 17.0878 35.9869 17.07 35.36C17.0741 34.9479 17.1451 34.5393 17.28 34.15C17.6067 33.19 18.5334 30.14 20.06 25V22.06H23V25H24.82C25.1473 24.9919 25.4678 25.094 25.73 25.29C25.9864 25.492 26.1748 25.7677 26.27 26.08H26.31ZM23 36.85C23.7306 36.8735 24.4555 36.7154 25.11 36.39C25.69 36.09 25.98 35.74 25.98 35.39C25.98 35.04 25.69 34.65 25.11 34.39C24.46 34.0449 23.7359 33.863 23 33.86C22.2824 33.8372 21.5705 33.9954 20.93 34.32C20.37 34.62 20.08 34.97 20.06 35.32C20.04 35.67 20.32 36.05 20.93 36.32C21.5666 36.6625 22.2772 36.8444 23 36.85V36.85Z" fill="#000"/>
</svg>

<svg xmlns="http://www.w3.org/2000/svg" viewBox="0 0 50 50"><g id="archive"><path id="path1271" d="M23,13.15V10.21H20.1v2.94Zm3,3v-3H23v3Zm-3,2.94V16.14H20.1v2.94Zm3,3v-3H23v3Zm16.16-9a5.32,5.32,0,0,1,1.11,1.74,5.22,5.22,0,0,1,.46,2.07V43.47a2.16,2.16,0,0,1-.62,1.58,2.32,2.32,0,0,1-1.58.66H10.49a2.08,2.08,0,0,1-1.58-.66,2.43,2.43,0,0,1-.66-1.58V6.53A2.08,2.08,0,0,1,8.91,5a2.43,2.43,0,0,1,1.58-.66H31.2a5.51,5.51,0,0,1,2,.45A5.08,5.08,0,0,1,35,5.86ZM31.9,7.44v8.7h8.7a2,2,0,0,0-.5-1L32.86,7.93a2,2,0,0,0-1-.49Zm8.91,35.33V19.08H31.2a2.06,2.06,0,0,1-1.58-.67A2.36,2.36,0,0,1,29,16.88V7.23H26v3H23v-3H11.19V42.77ZM26.31,26.08l2.49,8.07A4.74,4.74,0,0,1,29,35.36a3.89,3.89,0,0,1-1.66,3.19A6.58,6.58,0,0,1,23,39.79a7.15,7.15,0,0,1-4.23-1.24,4.06,4.06,0,0,1-1.7-3.19,3.81,3.81,0,0,1,.21-1.21q.49-1.44,2.78-9.15V22.06H23V25h1.82a1.46,1.46,0,0,1,.91.29,1.6,1.6,0,0,1,.54.79ZM23,36.85a4.42,4.42,0,0,0,2.11-.46c.58-.3.87-.65.87-1s-.29-.74-.87-1A4.54,4.54,0,0,0,23,33.86a4.28,4.28,0,0,0-2.07.46c-.56.3-.85.65-.87,1s.26.73.87,1A4.44,4.44,0,0,0,23,36.85Z"/></g></svg>
